Yaru++/apps/scalable/griffith.svg

<svg enable-background="new" height="256" viewBox="0 0 256 256" width="256" xmlns="http://www.w3.org/2000/svg" xmlns:xlink="http://www.w3.org/1999/xlink">
  <linearGradient id="linearGradient4358" gradientUnits="userSpaceOnUse" x1="88" x2="488" y1="88" y2="488">
    <stop offset="0" stop-opacity=".588235"/>
    <stop offset=".88" stop-opacity="0"/>
    <stop offset="1"/>
  </linearGradient>
  <filter id="filter4380" color-interpolation-filters="sRGB" height="1.088" width="1.106" x="-.05" y="-.04">
    <feGaussianBlur stdDeviation="8.48"/>
  </filter>
  <filter id="filter4346" color-interpolation-filters="sRGB" height="1.022" width="1.026" x="-.01" y="-.01">
    <feGaussianBlur stdDeviation="2.12"/>
  </filter>
  <linearGradient id="linearGradient1043" gradientTransform="matrix(198.29 0 0 181.196 28.855 35.521)" gradientUnits="userSpaceOnUse" x1="1" x2="1" y1=".5" y2=".018">
    <stop offset="0" stop-color="#fff" stop-opacity=".972"/>
    <stop offset=".64572" stop-color="#fff" stop-opacity=".916"/>
    <stop offset="1" stop-color="#fff" stop-opacity="0"/>
  </linearGradient>
  <path d="m189.84323 74c-70.59344 0-78.18921 7.250835-77.84323 77.98706v146.01294 146.01294c-.34598 70.73623 7.24979 77.98706 77.84323 77.98706h196.31354c70.59344 0 76.00668-7.27384 77.84323-77.98706v-146.01294-146.01294c0-70.737067-7.24979-77.98706-77.84323-77.98706z" filter="url(#filter4346)" opacity=".1" transform="matrix(.5 0 0 .5 -16.666462 -20.825235)"/>
  <path d="m189.84323 74c-70.59344 0-78.18921 7.250835-77.84323 77.98706v146.01294 146.01294c-.34598 70.73623 7.24979 77.98706 77.84323 77.98706h196.31354c70.59344 0 77.84323-7.24999 77.84323-77.98706v-146.01294-146.01294c0-70.737067-7.24979-77.98706-77.84323-77.98706z" fill="url(#linearGradient4358)" filter="url(#filter4380)" opacity=".3" transform="matrix(.5 0 0 .5 -16.666462 -20.825235)"/>
  <path d="m77.145138 13.174765c-36.098811 0-39.983003 3.690158-39.806081 39.689842v74.310163 74.31016c-.176922 35.99969 3.70727 39.68984 39.806081 39.68984h100.387322c36.09881 0 39.80608-3.68973 39.80608-39.68984v-74.31016-74.310163c0-36.000113-3.70727-39.689842-39.80608-39.689842z" opacity=".1"/>
  <path d="m176.40652 15.174765c35.29673 0 39.09461 3.625418 38.92162 38.99353v73.006475 73.00647c.17299 35.36812-3.62489 38.99353-38.92162 38.99353h-98.156762c-35.296716 0-38.921616-3.625-38.921616-38.99353v-73.00647-73.006475c0-35.368533 3.6249-38.99353 38.921616-38.99353z" fill="#4d4d4d"/>
  <path d="m189.33594 15.509766c-.41007-.023824-.69232-.088942-1.11524-.109375-3.48151-.168211-7.40236-.226563-11.81445-.226563h-98.15625c-4.41209 0-8.329516.058362-11.806641.226563-.423826.020502-.706339.085458-1.117187.109375v223.330074c.410848.02392.693361.08888 1.117187.10938 3.477125.1682 7.394551.22461 11.806641.22461h98.15625c4.41209 0 8.33294-.0564 11.81445-.22461.42292-.02043.70517-.08555 1.11524-.10938z" fill="#527eb2"/>
  <path d="m131.07653 183.67022q-12.17326 0-21.6154-4.75983-9.44215-4.75982-15.138824-12.87563-5.69571-8.11485-8.50528-17.94744-2.8096-9.83258-2.8096-20.913 0-10.30053 2.96558-20.05463 2.96557-9.754105 8.66224-18.025902 5.695694-8.271816 15.137844-13.343586 9.44214-5.07276 21.30344-5.07276 14.5149 0 23.48812 6.32156 8.9742 6.320608 15.68524 17.089052l-18.57232 10.612486q-9.05171-13.734019-20.60104-13.734019-7.17898 0-12.56369 3.356004-5.38373 3.355019-8.19333 8.895715-2.8086 5.53973-4.13589 11.54836-1.32633 6.00863-1.32633 12.40772 0 15.2948 6.55506 25.7513 6.55505 10.45649 19.66418 10.45649 7.95984 0 13.49957-5.15024 5.54069-5.15027 5.54069-12.48522v-1.24882h-18.57232v-19.97712h40.11022v16.07567q0 20.28811-11.39335 31.68146-11.39336 11.39238-29.18481 11.39238z" fill="#fdc92b"/>
  <path d="m215.32812 112.09766v-57.929691c.02163-4.421014-.01954-8.346107-.17578-11.830078-.15623-3.483972-.42752-6.526832-.86914-9.183594-.44161-2.656762-1.05218-4.927802-1.88672-6.867188-.41726-.969692-.89012-1.855073-1.42578-2.666015-.53566-.810943-1.13524-1.54697-1.80273-2.212891s-1.40403-1.262246-2.2168-1.796875c-.81276-.534629-1.70039-1.006762-2.67187-1.423828-1.94297-.834132-4.21848-1.448276-6.87696-1.894531-2.65847-.446255-5.70012-.724368-9.18164-.892578-3.48151-.168211-7.40236-.226563-11.81445-.226563h-98.15625c-4.41209 0-8.329516.058362-11.806641.226563-3.477124.1682-6.514298.446339-9.166015.892578-2.651718.446238-4.917647 1.060416-6.853516 1.894531-.967934.417057-1.854548.889207-2.664062 1.423828-.809515.534621-1.542242 1.130961-2.207032 1.796875-.664789.665915-1.261163 1.401953-1.794922 2.212891-.533758.810937-1.005451 1.696325-1.421874 2.666015-.832847 1.939382-1.444953 4.210416-1.890626 6.867188-.445672 2.656772-.72452 5.699593-.892578 9.183594-.168057 3.484-.224609 7.409011-.224609 11.830078v73.005861 8.69531c30.053587 1.45948 106.785905-76.12508 175.999995-23.77148z" fill="#fff" opacity=".1"/>
  <path d="m45.949 35.521v10.256h-17.094v-7.018c.938434-1.161868 1.970559-2.24483 3.086-3.238zm0 17.094v10.256h-17.094v-10.256zm0 17.094v10.256h-17.094v-10.256zm0 17.094v10.256h-17.094v-10.256zm0 17.094v10.256h-17.094v-10.256zm0 17.094v10.256h-17.094v-10.256zm0 17.094v10.256h-17.094v-10.256zm0 17.094v10.256h-17.094v-10.256zm0 17.094v10.256h-17.094v-10.256zm0 17.094v10.256h-17.094v-10.256zm0 17.094v10.256h-14.008c-1.115441-.99317-2.147566-2.07613-3.086-3.238v-7.018z" fill="url(#linearGradient1043)" opacity=".36" transform="matrix(.98100181 0 0 .98100181 164.58184 2.802472)"/>
  <path d="m78.260818 239.17477c-35.296731 0-39.094875-3.62603-38.921885-38.99414v-2c-.17299 35.36811 3.625154 38.99414 38.921885 38.99414h98.156242c35.29673 0 38.92188-3.62561 38.92188-38.99414v2c0 35.36853-3.62515 38.99414-38.92188 38.99414z" opacity=".2"/>
  <path d="m78.255418 15.174765c-35.296728 0-39.09487 3.626029-38.92188 38.994141v2c-.17299-35.368112 3.625152-38.994141 38.92188-38.994141h98.156242c35.29673 0 38.92188 3.625608 38.92188 38.994141v-2c0-35.368533-3.62515-38.994141-38.92188-38.994141z" fill="#fff" opacity=".3"/>
  <path d="m45.949 35.521v10.256h-17.094v-7.018c.938434-1.161868 1.970559-2.24483 3.086-3.238zm0 17.094v10.256h-17.094v-10.256zm0 17.094v10.256h-17.094v-10.256zm0 17.094v10.256h-17.094v-10.256zm0 17.094v10.256h-17.094v-10.256zm0 17.094v10.256h-17.094v-10.256zm0 17.094v10.256h-17.094v-10.256zm0 17.094v10.256h-17.094v-10.256zm0 17.094v10.256h-17.094v-10.256zm0 17.094v10.256h-17.094v-10.256zm0 17.094v10.256h-14.008c-1.115441-.99317-2.147566-2.07613-3.086-3.238v-7.018z" fill="url(#linearGradient1043)" opacity=".36" transform="matrix(.98100181 0 0 .98100181 16.58184 2.802472)"/>
</svg>

<svg xmlns="http://www.w3.org/2000/svg" xmlns:xlink="http://www.w3.org/1999/xlink" style="enable-background:new" width="256" height="256" version="1.0" viewBox="0 0 256 256">
 <title id="title4162">
  Adwaita Icon Template
 </title>
 <defs>
  <linearGradient id="linearGradient1803">
   <stop id="stop1799" offset="0" style="stop-color:#deddda"/>
   <stop id="stop1801" offset="1" style="stop-color:#77767b"/>
  </linearGradient>
  <linearGradient id="linearGradient1797">
   <stop id="stop1793" offset="0" style="stop-color:#deddda"/>
   <stop id="stop1795" offset="1" style="stop-color:#77767b"/>
  </linearGradient>
  <linearGradient id="linearGradient1639">
   <stop id="stop1635" offset="0" style="stop-color:#9a9996"/>
   <stop id="stop1637" offset="1" style="stop-color:#77767b"/>
  </linearGradient>
  <linearGradient id="linearGradient1319">
   <stop id="stop1307" offset="0" style="stop-color:#3d3846"/>
   <stop style="stop-color:#5e5c64" id="stop1309" offset=".045"/>
   <stop id="stop1311" offset=".091" style="stop-color:#3d3846"/>
   <stop style="stop-color:#3d3846" id="stop1313" offset=".909"/>
   <stop id="stop1315" offset=".955" style="stop-color:#5e5c64"/>
   <stop id="stop1317" offset="1" style="stop-color:#3d3846"/>
  </linearGradient>
  <linearGradient id="linearGradient3051">
   <stop id="stop3047" offset="0" style="stop-color:#deddda"/>
   <stop id="stop3049" offset="1" style="stop-color:#c0bfbc"/>
  </linearGradient>
  <linearGradient id="linearGradient3550">
   <stop style="stop-color:#c0bfbc" id="stop3542" offset="0"/>
   <stop style="stop-color:#ffffff" id="stop3544" offset=".351"/>
   <stop id="stop3546" offset=".602" style="stop-color:#9a9996"/>
   <stop style="stop-color:#77767b" id="stop3548" offset="1"/>
  </linearGradient>
  <linearGradient id="linearGradient1111" x1="60" x2="68" y1="199.856" y2="199.856" gradientTransform="matrix(0.75,0,0,0.7,-28.999993,80.000034)" gradientUnits="userSpaceOnUse" xlink:href="#linearGradient3550"/>
  <radialGradient id="radialGradient1102" cx="-223" cy="64" r="24" fx="-223" fy="64" gradientTransform="matrix(0.74999998,0,0,0.74999998,-42.250016,16.000009)" gradientUnits="userSpaceOnUse" xlink:href="#linearGradient1803"/>
  <linearGradient id="linearGradient1100" x1="60" x2="68" y1="199.856" y2="199.856" gradientTransform="matrix(0.75,0,0,0.7,-28.999993,113.00003)" gradientUnits="userSpaceOnUse" xlink:href="#linearGradient3550"/>
  <radialGradient id="radialGradient1098" cx="-223" cy="64" r="24" fx="-223" fy="64" gradientTransform="matrix(0.77777778,0,0,0.77777778,-35.305572,14.222232)" gradientUnits="userSpaceOnUse" xlink:href="#linearGradient1797"/>
  <linearGradient id="linearGradient1096" x1="83.111" x2="102.222" y1="199.512" y2="289.047" gradientTransform="matrix(0.83720947,0,0,1.2285714,-117.58141,-49.114262)" gradientUnits="userSpaceOnUse" xlink:href="#linearGradient1639"/>
  <linearGradient id="linearGradient1094" x1="48" x2="464" y1="204" y2="204" gradientTransform="matrix(0.21153843,0,0,0.25,9.846169,229.00002)" gradientUnits="userSpaceOnUse" xlink:href="#linearGradient1319"/>
  <radialGradient id="radialGradient1476" cx="-236" cy="-64" r="12" fx="-236" fy="-64" gradientTransform="matrix(0.47222224,0,0,0.47222224,-104.55557,-33.777784)" gradientUnits="userSpaceOnUse" xlink:href="#linearGradient3051"/>
  <linearGradient id="linearGradient1017" x1="50.981" x2="50.981" y1="248.218" y2="252.218" gradientTransform="matrix(-0.8660254,0.5,0.5,0.8660254,-21.742918,8.8145345)" gradientUnits="userSpaceOnUse" xlink:href="#linearGradient3550"/>
  <linearGradient id="linearGradient1028" x1="50.981" x2="50.981" y1="248.218" y2="252.218" gradientTransform="rotate(30.000001,58.423309,283.83136)" gradientUnits="userSpaceOnUse" xlink:href="#linearGradient3550"/>
  <linearGradient id="linearGradient1030" x1="50.981" x2="50.981" y1="248.218" y2="252.218" gradientTransform="matrix(0,1,1,0,-186.21792,202.01922)" gradientUnits="userSpaceOnUse" xlink:href="#linearGradient3550"/>
  <linearGradient id="linearGradient4358" x1="88" x2="488" y1="88" y2="488" gradientUnits="userSpaceOnUse" xlink:href="#linearGradient4360"/>
  <linearGradient id="linearGradient4360">
   <stop id="stop4362" offset="0" style="stop-color:#000000;stop-opacity:0.58823532"/>
   <stop style="stop-color:#000000;stop-opacity:0" id="stop4364" offset=".88"/>
   <stop id="stop4366" offset="1" style="stop-color:#000000"/>
  </linearGradient>
  <filter style="color-interpolation-filters:sRGB" id="filter4380" width="1.106" height="1.088" x="-.05" y="-.04">
   <feGaussianBlur id="feGaussianBlur4382" stdDeviation="8.48"/>
  </filter>
  <filter style="color-interpolation-filters:sRGB" id="filter4346" width="1.026" height="1.022" x="-.01" y="-.01">
   <feGaussianBlur id="feGaussianBlur4348" stdDeviation="2.12"/>
  </filter>
  <linearGradient id="sublime-icon-b" x1="193.591" x2="211.49" y1="414.559" y2="324.754" gradientTransform="matrix(0.14620093,0,0,0.09746729,8.3839832,234.45793)" gradientUnits="userSpaceOnUse">
   <stop id="stop1004" offset="0" stop-color="#FF9700"/>
   <stop id="stop1006" offset=".53" stop-color="#F48E00"/>
   <stop id="stop1008" offset="1" stop-color="#CE6E00"/>
  </linearGradient>
  <linearGradient id="sublime-icon-b-3" x1="193.591" x2="211.49" y1="414.559" y2="324.754" gradientTransform="matrix(-0.14620093,0,0,-0.09746729,61.796748,288.06735)" gradientUnits="userSpaceOnUse">
   <stop id="stop1011" offset="0" stop-color="#FF9700"/>
   <stop id="stop1013" offset=".53" stop-color="#F48E00"/>
   <stop id="stop1015" offset="1" stop-color="#CE6E00"/>
  </linearGradient>
  <linearGradient id="_lgradient_197" x1="1" x2="1" y1=".5" y2=".018" gradientTransform="matrix(198.29,0,0,181.196,28.855,35.521)" gradientUnits="userSpaceOnUse">
   <stop style="stop-color:#ffffff" id="stop24" offset="0%" stop-opacity=".972"/>
   <stop style="stop-color:#ffffff" id="stop26" offset="64.572%" stop-opacity=".916"/>
   <stop style="stop-color:#ffffff" id="stop28" offset="100%" stop-opacity="0"/>
  </linearGradient>
  <linearGradient id="linearGradient1043" x1="1" x2="1" y1=".5" y2=".018" gradientTransform="matrix(198.29,0,0,181.196,28.855,35.521)" gradientUnits="userSpaceOnUse" xlink:href="#_lgradient_197"/>
  <linearGradient id="linearGradient997" x1="1" x2="1" y1=".5" y2=".018" gradientTransform="matrix(198.29,0,0,181.196,28.855,35.521)" gradientUnits="userSpaceOnUse" xlink:href="#_lgradient_197"/>
 </defs>
 <path style="opacity:0.1;filter:url(#filter4346)" d="M 189.84323,74 C 119.24979,74 111.65402,81.250835 112,151.98706 V 298 444.01294 C 111.65402,514.74917 119.24979,522 189.84323,522 H 386.15677 C 456.75021,522 462.16345,514.72616 464,444.01294 V 298 151.98706 C 464,81.249993 456.75021,74 386.15677,74 Z" transform="matrix(0.5,0,0,0.5,-16.666462,-20.825235)"/>
 <path d="M 189.84323,74 C 119.24979,74 111.65402,81.250835 112,151.98706 V 298 444.01294 C 111.65402,514.74917 119.24979,522 189.84323,522 H 386.15677 C 456.75021,522 464,514.75001 464,444.01294 V 298 151.98706 C 464,81.249993 456.75021,74 386.15677,74 Z" transform="matrix(0.5,0,0,0.5,-16.666462,-20.825235)" style="opacity:0.3;fill:url(#linearGradient4358);filter:url(#filter4380)"/>
 <path style="opacity:0.1" d="m 77.145138,13.174765 c -36.098811,0 -39.983003,3.690158 -39.806081,39.689842 v 74.310163 74.31016 c -0.176922,35.99969 3.70727,39.68984 39.806081,39.68984 H 177.53246 c 36.09881,0 39.80608,-3.68973 39.80608,-39.68984 V 127.17477 52.864607 c 0,-36.000113 -3.70727,-39.689842 -39.80608,-39.689842 z"/>
 <path style="fill:#4d4d4d" d="m 176.40652,15.174765 c 35.29673,0 39.09461,3.625418 38.92162,38.99353 v 73.006475 73.00647 c 0.17299,35.36812 -3.62489,38.99353 -38.92162,38.99353 H 78.249758 c -35.296716,0 -38.921616,-3.625 -38.921616,-38.99353 V 127.17477 54.168295 c 0,-35.368533 3.6249,-38.99353 38.921616,-38.99353 z"/>
 <path style="isolation:isolate;fill:#527eb2" d="M 189.33594 15.509766 C 188.92587 15.485942 188.64362 15.420824 188.2207 15.400391 C 184.73919 15.23218 180.81834 15.173828 176.40625 15.173828 L 78.25 15.173828 C 73.83791 15.173828 69.920484 15.23219 66.443359 15.400391 C 66.019533 15.420893 65.73702 15.485849 65.326172 15.509766 L 65.326172 238.83984 C 65.73702 238.86376 66.019533 238.92872 66.443359 238.94922 C 69.920484 239.11742 73.83791 239.17383 78.25 239.17383 L 176.40625 239.17383 C 180.81834 239.17383 184.73919 239.11743 188.2207 238.94922 C 188.64362 238.92879 188.92587 238.86367 189.33594 238.83984 L 189.33594 15.509766 z"/>
 <path style="isolation:isolate;fill:#fdc92b" d="m 131.07653,183.67022 q -12.17326,0 -21.6154,-4.75983 -9.44215,-4.75982 -15.138824,-12.87563 -5.69571,-8.11485 -8.50528,-17.94744 -2.8096,-9.83258 -2.8096,-20.913 0,-10.30053 2.96558,-20.05463 2.96557,-9.754105 8.66224,-18.025902 5.695694,-8.271816 15.137844,-13.343586 9.44214,-5.07276 21.30344,-5.07276 14.5149,0 23.48812,6.32156 8.9742,6.320608 15.68524,17.089052 l -18.57232,10.612486 q -9.05171,-13.734019 -20.60104,-13.734019 -7.17898,0 -12.56369,3.356004 -5.38373,3.355019 -8.19333,8.895715 -2.8086,5.53973 -4.13589,11.54836 -1.32633,6.00863 -1.32633,12.40772 0,15.2948 6.55506,25.7513 6.55505,10.45649 19.66418,10.45649 7.95984,0 13.49957,-5.15024 5.54069,-5.15027 5.54069,-12.48522 v -1.24882 h -18.57232 v -19.97712 h 40.11022 v 16.07567 q 0,20.28811 -11.39335,31.68146 -11.39336,11.39238 -29.18481,11.39238 z"/>
 <path style="opacity:0.1;isolation:isolate;fill:#ffffff" d="M 215.32812 112.09766 L 215.32812 54.167969 C 215.34975 49.746955 215.30858 45.821862 215.15234 42.337891 C 214.99611 38.853919 214.72482 35.811059 214.2832 33.154297 C 213.84159 30.497535 213.23102 28.226495 212.39648 26.287109 C 211.97922 25.317417 211.50636 24.432036 210.9707 23.621094 C 210.43504 22.810151 209.83546 22.074124 209.16797 21.408203 C 208.50048 20.742282 207.76394 20.145957 206.95117 19.611328 C 206.13841 19.076699 205.25078 18.604566 204.2793 18.1875 C 202.33633 17.353368 200.06082 16.739224 197.40234 16.292969 C 194.74387 15.846714 191.70222 15.568601 188.2207 15.400391 C 184.73919 15.23218 180.81834 15.173828 176.40625 15.173828 L 78.25 15.173828 C 73.83791 15.173828 69.920484 15.23219 66.443359 15.400391 C 62.966235 15.568591 59.929061 15.84673 57.277344 16.292969 C 54.625626 16.739207 52.359697 17.353385 50.423828 18.1875 C 49.455894 18.604557 48.56928 19.076707 47.759766 19.611328 C 46.950251 20.145949 46.217524 20.742289 45.552734 21.408203 C 44.887945 22.074118 44.291571 22.810156 43.757812 23.621094 C 43.224054 24.432031 42.752361 25.317419 42.335938 26.287109 C 41.503091 28.226491 40.890985 30.497525 40.445312 33.154297 C 39.99964 35.811069 39.720792 38.85389 39.552734 42.337891 C 39.384677 45.821891 39.328125 49.746902 39.328125 54.167969 L 39.328125 127.17383 L 39.328125 135.86914 C 69.381712 137.32862 146.11403 59.74406 215.32812 112.09766 z"/>
 <g transform="matrix(0.98100181,0,0,0.98100181,164.58184,2.8024715)" style="opacity:0.6;isolation:isolate;enable-background:new">
  <g style="opacity:0.6">
   <linearGradient id="linearGradient1035" x1="1" x2="1" y1=".5" y2=".018" gradientTransform="matrix(198.29,0,0,181.196,28.855,35.521)" gradientUnits="userSpaceOnUse">
    <stop id="stop1029" offset="0%" stop-opacity=".972" style="stop-color:#ffffff"/>
    <stop id="stop1031" offset="64.572%" stop-opacity=".916" style="stop-color:#ffffff"/>
    <stop id="stop1033" offset="100%" stop-opacity="0" style="stop-color:#ffffff"/>
   </linearGradient>
   <path d="M 45.949,35.521 V 45.777 H 28.855 v -7.018 c 0.938434,-1.161868 1.970559,-2.24483 3.086,-3.238 z m 0,17.094 V 62.871 H 28.855 V 52.615 Z m 0,17.094 V 79.965 H 28.855 V 69.709 Z m 0,17.094 V 97.059 H 28.855 V 86.803 Z m 0,17.094 v 10.256 H 28.855 v -10.256 z m 0,17.094 v 10.256 H 28.855 v -10.256 z m 0,17.094 v 10.256 H 28.855 v -10.256 z m 0,17.094 v 10.256 H 28.855 v -10.256 z m 0,17.094 v 10.256 H 28.855 v -10.256 z m 0,17.094 v 10.256 H 28.855 v -10.256 z m 0,17.094 v 10.256 H 31.941 c -1.115441,-0.99317 -2.147566,-2.07613 -3.086,-3.238 v -7.018 z" style="fill:url(#linearGradient1043)"/>
  </g>
 </g>
 <path style="opacity:0.2" d="m 78.260818,239.17477 c -35.296731,0 -39.094875,-3.62603 -38.921885,-38.99414 v -2 c -0.17299,35.36811 3.625154,38.99414 38.921885,38.99414 h 98.156242 c 35.29673,0 38.92188,-3.62561 38.92188,-38.99414 v 2 c 0,35.36853 -3.62515,38.99414 -38.92188,38.99414 z"/>
 <path style="opacity:0.3;fill:#ffffff" d="m 78.255418,15.174765 c -35.296728,0 -39.09487,3.626029 -38.92188,38.994141 v 2 C 39.160548,20.800794 42.95869,17.174765 78.255418,17.174765 h 98.156242 c 35.29673,0 38.92188,3.625608 38.92188,38.994141 v -2 c 0,-35.368533 -3.62515,-38.994141 -38.92188,-38.994141 z"/>
 <g style="opacity:0.6;isolation:isolate;enable-background:new" transform="matrix(0.98100181,0,0,0.98100181,16.58184,2.8024715)">
  <g style="opacity:0.6">
   <linearGradient id="linearGradient989" x1="1" x2="1" y1=".5" y2=".018" gradientTransform="matrix(198.29,0,0,181.196,28.855,35.521)" gradientUnits="userSpaceOnUse">
    <stop style="stop-color:#ffffff" id="stop983" offset="0%" stop-opacity=".972"/>
    <stop style="stop-color:#ffffff" id="stop985" offset="64.572%" stop-opacity=".916"/>
    <stop style="stop-color:#ffffff" id="stop987" offset="100%" stop-opacity="0"/>
   </linearGradient>
   <path style="fill:url(#linearGradient997)" d="M 45.949,35.521 V 45.777 H 28.855 v -7.018 c 0.938434,-1.161868 1.970559,-2.24483 3.086,-3.238 z m 0,17.094 V 62.871 H 28.855 V 52.615 Z m 0,17.094 V 79.965 H 28.855 V 69.709 Z m 0,17.094 V 97.059 H 28.855 V 86.803 Z m 0,17.094 v 10.256 H 28.855 v -10.256 z m 0,17.094 v 10.256 H 28.855 v -10.256 z m 0,17.094 v 10.256 H 28.855 v -10.256 z m 0,17.094 v 10.256 H 28.855 v -10.256 z m 0,17.094 v 10.256 H 28.855 v -10.256 z m 0,17.094 v 10.256 H 28.855 v -10.256 z m 0,17.094 v 10.256 H 31.941 c -1.115441,-0.99317 -2.147566,-2.07613 -3.086,-3.238 v -7.018 z"/>
  </g>
 </g>
</svg>
